images/icons/messenger.svg

<svg fill="none" height="24" viewBox="0 0 24 24" width="24" xmlns="http://www.w3.org/2000/svg" xmlns:xlink="http://www.w3.org/1999/xlink"><clipPath id="a"><path d="m0 0h24v24h-24z"/></clipPath><g clip-path="url(#a)"><path clip-rule="evenodd" d="m0 11.64c0-6.68831 5.24005-11.64 12-11.64 6.76 0 12 4.95169 12 11.64 0 6.6884-5.24 11.64-12 11.64-1.2142 0-2.3791-.1603-3.47362-.4612-.21276-.0586-.43901-.042-.64093.047l-2.38183 1.0514c-.62304.2751-1.32634-.168-1.34722-.8488l-.06535-2.1346c-.00804-.263-.12636-.5088-.32237-.6842-2.33492-2.0881-3.76868-5.1111-3.76868-8.6096zm8.31906-2.1884-3.525 5.5925c-.33828.5367.32143 1.1415.8268.758l3.78644-2.8737c.25613-.1944.6101-.1954.8673-.0025l2.8037 2.1028c.8412.631 2.042.4094 2.6027-.4802l3.525-5.59255c.3382-.53671-.3214-1.14151-.8268-.75799l-3.7865 2.87364c-.2561.1944-.61.1954-.8673.0025l-2.8036-2.10274c-.8413-.63096-2.04202-.40944-2.60274.48024z" fill="#fff" fill-rule="evenodd"/></g></svg>

<svg width="24" height="24" viewBox="0 0 24 24" fill="none" xmlns="http://www.w3.org/2000/svg">
<g clip-path="url(#clip0_1432_8713)">
<path fill-rule="evenodd" clip-rule="evenodd" d="M0 11.64C0 4.95169 5.24005 0 12 0C18.76 0 24 4.95169 24 11.64C24 18.3284 18.76 23.28 12 23.28C10.7858 23.28 9.6209 23.1197 8.52638 22.8188C8.31362 22.7602 8.08737 22.7768 7.88545 22.8658L5.50362 23.9172C4.88058 24.1923 4.17728 23.7492 4.1564 23.0684L4.09105 20.9338C4.08301 20.6708 3.96469 20.425 3.76868 20.2496C1.43376 18.1615 0 15.1385 0 11.64ZM8.31906 9.4516L4.79406 15.0441C4.45578 15.5808 5.11549 16.1856 5.62086 15.8021L9.4073 12.9284C9.66343 12.734 10.0174 12.733 10.2746 12.9259L13.0783 15.0287C13.9195 15.6597 15.1203 15.4381 15.681 14.5485L19.206 8.95595C19.5442 8.41924 18.8846 7.81444 18.3792 8.19796L14.5927 11.0716C14.3366 11.266 13.9827 11.267 13.7254 11.0741L10.9218 8.97136C10.0805 8.3404 8.87978 8.56192 8.31906 9.4516Z" fill="white"/>
</g>
<defs>
<clipPath id="clip0_1432_8713">
<rect width="24" height="24" fill="white"/>
</clipPath>
</defs>
</svg>
